Newaita/actions/16/gnumeric-format-border-thick-bottom.svg

<svg height="16" viewBox="0 0 16 16" width="16" xmlns="http://www.w3.org/2000/svg"><g fill="#424242"><path d="m2.644531 1.449219h10.585938c.730469 0 1.324219.589843 1.324219 1.320312v10.585938c0 .730469-.59375 1.324219-1.324219 1.324219h-10.585938c-.730469 0-1.320312-.59375-1.320312-1.324219v-10.585938c0-.730469.589843-1.320312 1.320312-1.320312zm0 0" fill-opacity=".392157"/><path d="m1.324219 7.734375h13.230469v.660156h-13.230469zm0 0"/><path d="m8.304688 1.449219v13.230469h-.695313v-13.230469zm0 0"/></g><path d="m1.324219 13.355469c0 .734375.589843 1.324219 1.320312 1.324219h10.585938c.734375 0 1.324219-.589844 1.324219-1.324219zm0 0" fill="#7e57c2"/><path d="m1.324219 12.03125h13.230469v1.324219h-13.230469zm0 0" fill="#7e57c2"/></svg>

<?xml version="1.0" encoding="UTF-8"?>
<svg xmlns="http://www.w3.org/2000/svg" xmlns:xlink="http://www.w3.org/1999/xlink" width="16px" height="16px" viewBox="0 0 16 16" version="1.1">
<g id="surface1">
<path style=" stroke:none;fill-rule:nonzero;fill:rgb(25.882354%,25.882354%,25.882354%);fill-opacity:0.392157;" d="M 2.644531 1.449219 L 13.230469 1.449219 C 13.960938 1.449219 14.554688 2.039062 14.554688 2.769531 L 14.554688 13.355469 C 14.554688 14.085938 13.960938 14.679688 13.230469 14.679688 L 2.644531 14.679688 C 1.914062 14.679688 1.324219 14.085938 1.324219 13.355469 L 1.324219 2.769531 C 1.324219 2.039062 1.914062 1.449219 2.644531 1.449219 Z M 2.644531 1.449219 "/>
<path style=" stroke:none;fill-rule:nonzero;fill:rgb(25.882354%,25.882354%,25.882354%);fill-opacity:1;" d="M 1.324219 7.734375 L 14.554688 7.734375 L 14.554688 8.394531 L 1.324219 8.394531 Z M 1.324219 7.734375 "/>
<path style=" stroke:none;fill-rule:nonzero;fill:rgb(25.882354%,25.882354%,25.882354%);fill-opacity:1;" d="M 8.304688 1.449219 L 8.304688 14.679688 L 7.609375 14.679688 L 7.609375 1.449219 Z M 8.304688 1.449219 "/>
<path style=" stroke:none;fill-rule:nonzero;fill:rgb(49.411765%,34.117648%,76.078433%);fill-opacity:1;" d="M 1.324219 13.355469 C 1.324219 14.089844 1.914062 14.679688 2.644531 14.679688 L 13.230469 14.679688 C 13.964844 14.679688 14.554688 14.089844 14.554688 13.355469 Z M 1.324219 13.355469 "/>
<path style=" stroke:none;fill-rule:nonzero;fill:rgb(49.411765%,34.117648%,76.078433%);fill-opacity:1;" d="M 1.324219 12.03125 L 14.554688 12.03125 L 14.554688 13.355469 L 1.324219 13.355469 Z M 1.324219 12.03125 "/>
</g>
</svg>
